X: 135
T: Parson's Farewell
M:4/4
L:1/8
Q:160
S:Playford
O:Manuscript
A:English
K:F
f2 d2 d2 ef|g2 c2 ce c|de f2 e2 d2| c2 A2 A4|f2 d2 d2 ef|g2 c2 ce c| de f2 e2 d2|c2 A2 A2:|
|:a2|f4 f2 a2|f4 f2 a2|fg a2 fg a2|g2 e2 e4|ef g2 ef g2| f2 d2 defg| a2 gf ed e2| d6:|

